X: 3202
T: Beer Barrel Polka, The
R: barndance
M: 4/4
K: Dmajor
A^G|A2 F4 A^G|A2 F4 A^G|A2 d2 e3d|d2 c4 c=c|
^c2 d2 e3d|d2 c4 cd|c2 B4 Bc|B2 A4 A^G|
A2 F4 A^G|A2 F4 A^G|A2 d2 e3d|d2 c6|
e3e e3d|d2 c4 B2|A2 _B2 =B2 c2|d2 ^G2 A2 _B2||
|:B4 _B2 =B2-|=B2 G2 F2 E2|B8-|B2 F2 G2 ^G2|
A4 ^G2 A2-|A2 F2 E2 D2|A8-|A2 d2 e2 d2|
c6 e2|B6 A2|c8-|c2 d2 e2 d2|
c4 e4|1 B4 _B4|A8-|A2 ^G2 A2 _B2:|2 B4 c4|d8-|d6||

